polaris-icons/icons/newicons/ToolsMajor.svg

<svg width="20" height="20" viewBox="0 0 20 20" fill="none" xmlns="http://www.w3.org/2000/svg">
<path fill-rule="evenodd" clip-rule="evenodd" d="M6.02022 3.33069C6.56236 3.11701 7.15235 3 7.76786 3C10.4011 3 12.5357 5.13464 12.5357 7.76786C12.5357 8.08788 12.5041 8.40111 12.4436 8.70439L16.2256 12.4863C16.7214 12.9822 17 13.6547 17 14.356C17 15.8162 15.8162 17 14.356 17C13.6547 17 12.9822 16.7214 12.4863 16.2256L8.70439 12.4436C8.40111 12.5041 8.08788 12.5357 7.76786 12.5357C5.13464 12.5357 3 10.4011 3 7.76786C3 7.15225 3.11705 6.56218 3.33079 6.01996C3.42349 5.7848 3.6284 5.61216 3.87588 5.56071C4.12336 5.50926 4.3801 5.58593 4.55885 5.76466L6.45529 7.66097C6.61521 7.82087 6.83212 7.91071 7.05828 7.91071C7.52925 7.91071 7.91104 7.52892 7.91104 7.05799C7.91104 6.83183 7.82119 6.61492 7.66126 6.45501L5.76491 4.5588C5.58616 4.38006 5.50947 4.1233 5.56092 3.8758C5.61237 3.62831 5.78504 3.42338 6.02022 3.33069ZM7.82805 4.50054L8.72188 5.39431C9.16314 5.83553 9.41104 6.43398 9.41104 7.05799C9.41104 8.35739 8.35763 9.41071 7.05828 9.41071C6.43433 9.41071 5.8359 9.16286 5.39467 8.72167L4.50054 7.8276C4.5324 9.60482 5.98303 11.0357 7.76786 11.0357C8.09927 11.0357 8.41785 10.9866 8.71745 10.8958C8.98223 10.8156 9.26969 10.8876 9.46533 11.0832L13.547 15.1649C13.7616 15.3795 14.0525 15.5 14.356 15.5C14.9878 15.5 15.5 14.9878 15.5 14.356C15.5 14.0525 15.3795 13.7616 15.1649 13.547L11.0832 9.46533C10.8876 9.26969 10.8156 8.98223 10.8958 8.71745C10.9866 8.41785 11.0357 8.09927 11.0357 7.76786C11.0357 5.98318 9.60506 4.53264 7.82805 4.50054Z" fill="black"/>
</svg>

<svg viewBox="0 0 20 20" fill="none" xmlns="http://www.w3.org/2000/svg"><path fill-rule="evenodd" clip-rule="evenodd" d="M6.02 3.33a4.768 4.768 0 0 1 6.423 5.374l3.783 3.782a2.644 2.644 0 0 1-3.74 3.74l-3.782-3.782a4.768 4.768 0 0 1-5.374-6.424.75.75 0 0 1 1.229-.255l1.896 1.896a.853.853 0 0 0 1.206-1.206l-1.896-1.896a.75.75 0 0 1 .255-1.228Zm1.808 1.17.894.894a2.353 2.353 0 1 1-3.327 3.328l-.894-.894a3.268 3.268 0 0 0 4.216 3.068.75.75 0 0 1 .748.187l4.082 4.082a1.144 1.144 0 1 0 1.618-1.618l-4.082-4.082a.75.75 0 0 1-.187-.748 3.268 3.268 0 0 0-3.068-4.217Z" fill="#5C5F62"/></svg>
